components/icon/svg/24/navigation_fullscreen.svg

<?xml version="1.0" encoding="UTF-8"?>
<svg width="24px" height="24px" viewBox="0 0 24 24" version="1.1" xmlns="http://www.w3.org/2000/svg" xmlns:xlink="http://www.w3.org/1999/xlink">
    <!-- Generator: Sketch 64 (93537) - https://sketch.com -->
    <title>ic-db_navigation_fullscreen_24</title>
    <desc>Created with Sketch.</desc>
    <g id="Symbols:Icon" stroke="none" stroke-width="1" fill="none" fill-rule="evenodd">
        <g id="24dp-Icon/Navigation/Fullscreen" fill="#282D37">
            <path d="M4,14 C4.4688,14 5,14.4062 5,15.0312 L5,19 L9.0312,19 C9.5625,19 10,19.4688 10,20 C10,20.5625 9.5625,21 9.0312,21 L4,21 C3.4375,21 3,20.5625 3,20 L3,15.0312 C3,14.4375 3.4375,14 4,14 Z M20,14 C20.5625,14 21,14.4688 21,15.0312 L21,20 C21,20.5625 20.5625,21 20,21 L14.9688,21 C14.4375,21 14,20.5625 14,20 C14,19.4688 14.4375,19 14.9688,19 L19,19 L19,15.0312 C19,14.4688 19.4375,14 20,14 Z M20,3 C20.5625,3 21,3.4375 21,4 L21,9 C21,9.5938 20.5625,10 20,10 C19.4375,10 19,9.5625 19,9 L19,5 L14.9688,5 C14.4375,5 14,4.5625 14,4 C14,3.4688 14.4375,3 14.9688,3 L20,3 Z M9.0312,3 C9.5625,3 10,3.4688 10,4 C10,4.5625 9.5625,5 9.0312,5 L5,5 L5,9 C5,9.5938 4.5625,10 4,10 C3.4375,10 3,9.5625 3,9 L3,4 C3,3.4375 3.4375,3 4,3 L9.0312,3 Z" id="🎨-Color"></path>
        </g>
    </g>
</svg>

<svg width="24" height="24" xmlns="http://www.w3.org/2000/svg"><path d="M4 14c.469 0 1 .406 1 1.031V19h4.031c.531 0 .969.469.969 1a.98.98 0 01-.969 1H4c-.563 0-1-.438-1-1v-4.969C3 14.437 3.438 14 4 14zm16 0c.563 0 1 .469 1 1.031V20c0 .563-.438 1-1 1h-5.031A.98.98 0 0114 20c0-.531.438-1 .969-1H19v-3.969c0-.562.438-1.031 1-1.031zm0-11c.563 0 1 .438 1 1v5c0 .594-.438 1-1 1-.563 0-1-.438-1-1V5h-4.031A.98.98 0 0114 4c0-.531.438-1 .969-1H20zM9.031 3c.531 0 .969.469.969 1a.98.98 0 01-.969 1H5v4c0 .594-.438 1-1 1-.563 0-1-.438-1-1V4c0-.563.438-1 1-1h5.031z" fill="#282D37" fill-rule="evenodd"/></svg>
